X:1
T:Eastern Township Waltz
M:3/4
L:1/8
S:Henri Landry
K:G
B,>C|D2G2A2|{A}B2 G>A G>F|G2 B>G B>e|d3 ed>A|
(F2 F>)E F>E|D2 F>G A>F|(d2 d>)e d>c|A2B2c2|
{B/c/}B4 B,>C|D2 G2A2|{A}B2 G>A G>F|G2 B>G B>e|
d3 ed>A|(F2 F>)E F>E|D2 F>G A>d|f2(3efe d2|
c2(3BcB A2|(G2 G>)F G>A|G4 D>D||{D}G2B2d2|
|:(g2 g>)f g>a|g2(3fgfe2|(A2 A>)B A>G|(F2 F>)G F>E|
D2F2 A>d|f2(3efed2|1 c2 B>c d>c|(B2 B>)A B>A|
G2 B>d d2:||2 c2(3BcBA2|(G2 G>)F GA|G4||

